svgs/bjetc.svg

<svg width="192" height="192" viewBox="0 0 192 192" fill="none" xmlns="http://www.w3.org/2000/svg">
<path d="M64 97.45H41.2154C31.0285 100.879 24.6917 107.071 22.2048 113.183M57.4839 130H30.1948C21.846 127.917 19.1827 120.609 22.2048 113.183M22.2048 113.183H58.0087M78 97.45H98.4542M98.4542 97.45H120.891M98.4542 97.45L89.5836 130M171 102.657C165.785 96.9428 155.356 97.4623 155.356 97.4623C125.11 97.4623 110.509 133.825 150.662 129.669C150.662 129.669 156.399 129.15 160.57 126.552M152.243 114.775L154.33 113.2M90.014 70.419C102.47 63.1939 118.502 67.3044 125.821 79.6M83.5 51.7013C103.43 40.1411 129.08 46.7178 140.792 66.3909" stroke="black" stroke-width="10" stroke-linecap="round" stroke-linejoin="round"/>
</svg>

<svg xmlns="http://www.w3.org/2000/svg" width="192" height="192" fill="none"><path stroke="#000" stroke-linecap="round" stroke-linejoin="round" stroke-width="10" d="M64 97.45H41.215c-10.187 3.429-16.523 9.621-19.01 15.733M57.484 130h-27.29c-8.348-2.083-11.011-9.391-7.99-16.817m0 0H58.01M78 97.45h20.454m0 0h22.437m-22.437 0L89.584 130M171 102.657c-5.215-5.714-15.644-5.195-15.644-5.195-30.246 0-44.847 36.363-4.694 32.207 0 0 5.737-.519 9.908-3.117m-8.327-11.777 2.087-1.575M90.014 70.419c12.456-7.225 28.488-3.115 35.807 9.181M83.5 51.701c19.93-11.56 45.58-4.983 57.292 14.69"/></svg>
